X:2311
T:Yn Mheillea
T:Manx Harvest Dance Tune 
C:James Kelly, Baldrine
C:Traditional
O:Isle of Man
Z:Collected by Mona Douglas
B:Kiaull Vannin #311 
M:6/8 
L:1/8
Q:140 
K:G 
D|D2G G2A|B3 G3|c2 B A2G|F3 D2D|D2G G2A|B3 G3|A3 B2^c|d3-d2d| 
d2e d2c|B3 G2c|c2B A2G|F3 D2 D|G2A B2G|E3 A2G|FD2 E2F|G3-G2|| 

